!!!!SEGMENT: pl-sa--79-a-ii-19--010_siwinski-andrzej--missa-pro-defunctis-iuste-iudex.krn
!!!cenid: 17xx:302
!!!COM: Siwiński, Andrzej
!!!COM-rismID:
!!!CDT: <1725->1725
!!!CNT:
!!!OPR: Missa pro defunctis
!!!OTL: Iuste iudex
!!!OMV: 010
!!!PDT: 1726
!!!AGN: Sacred; Mass
!!!SMS-siglum: PL-SA
!!!SMS-shelfmark: 79/A II 19
!!!SMS-shelfwork: 001-010 M
!!!NIFC-rismSourceID: 1001070177
!!!NIFC-islandoraID:
!!!URL-pdf-islandora:
!!!URL-scan: https://bc.bdsandomierz.pl/dlibra/publication/1356/edition/1324/content @EN{Scan on Cyfrowa Biblioteka Diecezjalna w Sandomierzu} @PL{Skany w portalu Cyfrowa Biblioteka Diecezjalna w Sandomierzu}
!!!ONB-nifc: Uwaga: części Mszy: Requiem, Kyrie, Dies Irae, Quantus tremor, Tuba mirrum, Mors, Quid sum miser, Rex tremende, Quaerens me, Iuste iudex, Oro supplex, Pie Iesu Domine, Domine Iesu Christe,Quam olim Abrahae, Hostias, Sanctus, Osanna, Benedictus, Agnus Dei
!!!AIN: 1 alto 1 empty 2 oboe 1 organ 1 tenor 2 violn 1 vox
!!!key:
**kern	**fba	**kern	**kern	**kern	**kern	**kern	**kern	**text	**kern	**kern	**dynam
*part9	*part9	*part8	*part7	*part6	*part5	*part4	*part3	*part3	*part2	*part1	*part1
*staff9	*staff9	*staff8	*staff7	*staff6	*staff5	*staff4	*staff3	*staff3	*staff2	*staff1	*
*Iorgan	*	*Ivioln	*Ivioln	*Iempty	*Itenor	*Ialto	*Ivox	*	*Ioboe	*Ioboe	*
*I"Organo	*	*I"Violino. 2do	*I"Violino 1mo	*I"Baſso	*I"Tenore	*I"Alto.	*I"Canto.	*	*I"Hobois 2do.	*I"Hautbo. 1mo.	*
*I'org	*	*I'vl 2	*I'vl 1	*I'B	*I'T	*I'A	*I'S	*	*I'ob 2	*I'ob 1	*
*clefF4	*	*clefG2	*clefG2	*clefF4	*clefC4	*clefC3	*clefC1	*	*clefG2	*clefG2	*
*k[b-e-]	*	*k[b-e-]	*k[b-e-]	*k[b-e-]	*k[b-e-]	*k[b-e-]	*k[b-e-]	*	*k[b-e-]	*k[b-e-]	*
*c:	*	*c:	*c:	*c:	*c:	*c:	*c:	*	*c:	*c:	*
*M2/2	*	*M2/2	*M2/2	*M2/2	*M2/2	*M2/2	*M2/2	*	*M2/2	*M2/2	*
*met(c|)	*	*met(c|)	*met(c|)	*met(c|)	*met(c|)	*met(c|)	*met(c|)	*	*met(c|)	*met(c|)	*
=1	=1	=1	=1	=1	=1	=1	=1	=1	=1	=1	=1
!LO:TX:a:i:t=aria lente	!	!LO:TX:i:a:t=Juſte Judex\nTacet	!LO:TX:a:i:t=Juste Judex Tacet\nCanto Solo et Hautbo	!LO:TX:a:i:t=Juste Judex\nTacet	!LO:TX:a:i:t=Juste Ju\ndex\nTacet	!LO:TX:i:a:t=Juste Judex\nTacet Cant. Hobiots	!LO:TX:a:i:t=aria solo	!	!LO:TX:a:i:t=Juſte Judex\nH. C. Tacet	!LO:TX:i:a:t=Aria Juste Solo	!
!LO:TX:i:b:t=Solo. Hautb.	!	!LO:TX:a:t=P:problem=napis na pięciolinii	!LO:TX:a:t=P:problem=napis na pięciolinii	!LO:TX:a:t=P:problem=napis na pięciolinii	!LO:TX:a:t=P:problem=napis na pięciolinii	!LO:TX:a:t=P:problem=napis na pięciolinii	!LO:TX:a:t=P:problem=brak znaków przykluczowych	!	!	!	!
!	!	!	!	!	!	!	!LO:N:vis=0	!	!	!LO:TX:b:i:t=Juste Judex.	!
8C/L	.	1ryy	1ryy	1ryy	1ryy	1ryy	0r	.	1ryy	4cc\	.
8D/	.	.	.	.	.	.	.	.	.	.	.
8E-/	.	.	.	.	.	.	.	.	.	8cc\L	.
8F/J	.	.	.	.	.	.	.	.	.	16bn\L	.
.	.	.	.	.	.	.	.	.	.	16a-X\JJ	.
8G\L	.	.	.	.	.	.	.	.	.	4g/	.
8A\	.	.	.	.	.	.	.	.	.	.	.
8Bn\	.	.	.	.	.	.	.	.	.	8r	.
8G\J	.	.	.	.	.	.	.	.	.	8g/	.
=2	=2	=2	=2	=2	=2	=2	=2	=2	=2	=2	=2
8F/L	X -	1ryy	1ryy	1ryy	1ryy	1ryy	.	.	1ryy	4a-X/	.
8E-/	.	.	.	.	.	.	.	.	.	.	.
8D/	.	.	.	.	.	.	.	.	.	8f/L	.
8BB-/J	.	.	.	.	.	.	.	.	.	16g/L	.
.	.	.	.	.	.	.	.	.	.	16a-X/JJ	.
8E-/L	.	.	.	.	.	.	.	.	.	4g/	.
8D/	.	.	.	.	.	.	.	.	.	.	.
8E-/	.	.	.	.	.	.	.	.	.	8r	.
8C/J	.	.	.	.	.	.	.	.	.	8gg\	.
=3	=3	=3	=3	=3	=3	=3	=3	=3	=3	=3	=3
!LO:TX:a:t=P:problem=mixed beam	!	!	!	!	!	!	!	!	!	!	!
8GG/L	.	1ryy	1ryy	1ryy	1ryy	1ryy	1r	.	1ryy	8bn/L	.
8G\	.	.	.	.	.	.	.	.	.	8g/J	.
8E-\	X 6	.	.	.	.	.	.	.	.	4cc\	.
8C\J	.	.	.	.	.	.	.	.	.	.	.
!LO:LB:g=original	!	!	!	!	!	!	!	!	!	!	!
!LO:TX:a:t=P:problem=niewyraźny zapis bc	!	!	!	!	!	!	!	!	!	!	!
!LO:TX:a:t=P:problem=mixed beam	!	!	!	!	!	!	!	!	!	!	!
8F\L	X 3	.	.	.	.	.	.	.	.	8dd\L	.
8D\	.	.	.	.	.	.	.	.	.	(>16ee-\L	.
.	.	.	.	.	.	.	.	.	.	16ff\JJ)	.
8G\	.	.	.	.	.	.	.	.	.	8.bnt>\L	.
!LO:TX:b:i:t=Juste Judex. Cant.	!	!	!	!	!	!	!	!	!	!	!
8GG/J	X 4	.	.	.	.	.	.	.	.	.	.
.	X 3	.	.	.	.	.	.	.	.	16b\Jk	.
=4	=4	=4	=4	=4	=4	=4	=4	=4	=4	=4	=4
8C/L	.	1ryy	1ryy	1ryy	1ryy	1ryy	4cc\	Jus-	1ryy	4cc\	.
8D/	.	.	.	.	.	.	.	.	.	.	.
8E-/	.	.	.	.	.	.	8cc\L	-te	.	4r	.
8F/J	.	.	.	.	.	.	(>16dd\L	.	.	.	.
.	.	.	.	.	.	.	16cc\JJ)	.	.	.	.
8G\L	.	.	.	.	.	.	4bn\	Jud-	.	2rg	.
8A\	.	.	.	.	.	.	.	.	.	.	.
8Bn\	.	.	.	.	.	.	4g\	-ex	.	.	.
8G\J	.	.	.	.	.	.	.	.	.	.	.
=5	=5	=5	=5	=5	=5	=5	=5	=5	=5	=5	=5
8C\L	.	1ryy	1ryy	1ryy	1ryy	1ryy	4ee-\	Ju-	1ryy	4cc\	.
8D\	.	.	.	.	.	.	.	.	.	.	.
8E-\	.	.	.	.	.	.	8ee-\L	-ste	.	8cc\L	.
8F\J	.	.	.	.	.	.	(>16ff\L	.	.	(>16dd\L	.
.	.	.	.	.	.	.	16ee-\JJ)	.	.	16cc\JJ)	.
!LO:TX:a:t=P:problem=mixed beam	!	!	!	!	!	!	!	!	!	!LO:LB:g=original	!
8G\L	.	.	.	.	.	.	4dd\	Ju-	.	4bn/	.
8GG/	.	.	.	.	.	.	.	.	.	.	.
8BBn/	X 6	.	.	.	.	.	4bn\	-dex	.	4g/	.
8GG/J	.	.	.	.	.	.	.	.	.	.	.
=6	=6	=6	=6	=6	=6	=6	=6	=6	=6	=6	=6
!LO:TX:a:t=P:problem=mixed beam	!	!	!	!	!	!	!	!	!	!	!
8A-X\L	.	1ryy	1ryy	1ryy	1ryy	1ryy	8cc\	ul-	1ryy	2r	.
8F\	.	.	.	.	.	.	(>16dd\LL	-ti-	.	.	.
.	.	.	.	.	.	.	16ee-\JJ)	.	.	.	.
8G\	.	.	.	.	.	.	4bn\	-o-	.	.	.
8GG/J	X 4	.	.	.	.	.	.	.	.	.	.
.	X 3	.	.	.	.	.	.	.	.	.	.
!LO:TX:a:t=P:problem=mixed beam	!	!	!	!	!	!	!	!	!	!	!
8C/L	.	.	.	.	.	.	4cc\	-nis	.	8cc\L	.
8F\	X 7	.	.	.	.	.	.	.	.	16dd\L	.
.	.	.	.	.	.	.	.	.	.	16ee-\JJ	.
8G\	.	.	.	.	.	.	4r	.	.	8.bnt>\L	.
8GG/J	X 4	.	.	.	.	.	.	.	.	.	.
.	X 3	.	.	.	.	.	.	.	.	16b\Jk	.
=7	=7	=7	=7	=7	=7	=7	=7	=7	=7	=7	=7
8C/L	.	1ryy	1ryy	1ryy	1ryy	1ryy	(>8g\L	do-	1ryy	8cc\	.
8E-/	.	.	.	.	.	.	8a-X\J)	.	.	8r	.
!LO:TX:a:t=P:problem=niewyraźny zapis bc	!	!	!	!	!	!	!	!	!	!	!
8D/	X 6	.	.	.	.	.	4b-\	-num	.	4r	.
8BB-/J	X -	.	.	.	.	.	.	.	.	.	.
!LO:TX:a:t=P:problem=mixed beam	!	!	!	!	!	!	!	!	!	!	!
8EE-/L	.	.	.	.	.	.	4e-/	fac	.	2rg	.
8E-\J	.	.	.	.	.	.	.	.	.	.	.
8D/L	X 6	.	.	.	.	.	4r	.	.	.	.
8BB-/J	X -	.	.	.	.	.	.	.	.	.	.
=8	=8	=8	=8	=8	=8	=8	=8	=8	=8	=8	=8
!	!	!	!	!	!	!	!	!	!	!LO:TX:a:t=1.	!
8F\L	X -	1ryy	1ryy	1ryy	1ryy	1ryy	(>8a-X\L	do-	1ryy	1r	.
8F\	.	.	.	.	.	.	8b-\J)	.	.	.	.
8En\	X 6	.	.	.	.	.	4cc\	-n(um)	.	.	.
8C\J	.	.	.	.	.	.	.	.	.	.	.
!LO:TX:a:t=P:problem=mixed beam	!	!	!	!	!	!	!	!	!	!	!
8FF/L	.	.	.	.	.	.	4f/	fac	.	.	.
8F\	.	.	.	.	.	.	.	.	.	.	.
8En\	X 6	.	.	.	.	.	8r	.	.	.	.
8C\J	.	.	.	.	.	.	(>16g\LL	re-	.	.	.
.	.	.	.	.	.	.	16a-X\JJ)	.	.	.	.
!	!	!	!	!	!	!	!LO:PB:g=original	!	!	!	!
=9	=9	=9	=9	=9	=9	=9	=9	=9	=9	=9-	=9
!	!	!	!	!	!	!	!LO:TX:a:t=P:znaki:problem= b-, ee-	!	!	!	!
8BB-/L	.	1ryy	1ryy	1ryy	1ryy	1ryy	(>16b-\LL	-mis-	1ryy	2r	.
.	.	.	.	.	.	.	16a-X\JJ)	.	.	.	.
8GG/	.	.	.	.	.	.	(>16g\LL	-si-	.	.	.
.	.	.	.	.	.	.	16a-X\JJ)	.	.	.	.
8C/	.	.	.	.	.	.	4en/	-o-	.	.	.
!	!LO:SIC:s=X n	!	!	!	!	!	!	!	!	!	!
8CC/J	X -	.	.	.	.	.	.	.	.	.	.
!LO:PB:g=original	!	!	!	!	!	!	!	!	!	!	!LO:HP:i:b:t=piano.
!	!	!	!	!	!	!	!	!	!	!	!LO:DY:b:
8FF/L	.	.	.	.	.	.	4f/	-nis	.	8ff\L	p
8BB-/	.	.	.	.	.	.	.	.	.	16gg\L	.
.	.	.	.	.	.	.	.	.	.	16aa-X\JJ	.
8C/	.	.	.	.	.	.	4r	.	.	8.eent>\L	.
8CC/J	X 3	.	.	.	.	.	.	.	.	.	.
.	X 4	.	.	.	.	.	.	.	.	16ee\Jk	.
=10	=10	=10	=10	=10	=10	=10	=10	=10	=10	=10	=10
!LO:TX:a:t=P:problem=mixed beam	!	!	!	!	!	!	!	!	!	!	!
8C/L	.	1ryy	1ryy	1ryy	1ryy	1ryy	4cc\	an-	1ryy	8ff\	.
8c\	.	.	.	.	.	.	.	.	.	8r	.
8Bn\	X 6	.	.	.	.	.	4gg\	-te	.	4r	.
8G\J	.	.	.	.	.	.	.	.	.	.	.
!LO:TX:a:t=P:problem=mixed beam	!	!	!	!	!	!	!	!	!	!	!
8GG/L	.	.	.	.	.	.	4bn\	di-	.	2r	.
8G\	.	.	.	.	.	.	.	.	.	.	.
8E-\	X 6	.	.	.	.	.	8cc\L	-em	.	.	.
8C\J	.	.	.	.	.	.	(>16dd\L	.	.	.	.
.	.	.	.	.	.	.	16ee-\JJ)	.	.	.	.
=11	=11	=11	=11	=11	=11	=11	=11	=11	=11	=11	=11
!LO:TX:a:t=P:problem=mixed beam	!	!	!	!	!	!	!	!	!	!	!
8D/L	.	1ryy	1ryy	1ryy	1ryy	1ryy	(>16ff\LL	ra-	1ryy	2r	.
.	.	.	.	.	.	.	16ee-\JJ)	.	.	.	.
8C/	.	.	.	.	.	.	(>16dd\LL	-ti-	.	.	.
.	.	.	.	.	.	.	16ee-\JJ)	.	.	.	.
8G\	.	.	.	.	.	.	4bn\	-o-	.	.	.
8GG/J	X 4	.	.	.	.	.	.	.	.	.	.
.	X 3	.	.	.	.	.	.	.	.	.	.
!LO:TX:a:t=P:problem=mixed beam	!	!	!	!	!	!	!	!	!	!	!
8C\L	.	.	.	.	.	.	4cc\	-nis	.	8cc\L	.
8F\	.	.	.	.	.	.	.	.	.	16dd\L	.
.	.	.	.	.	.	.	.	.	.	16ee-\JJ	.
8G\	.	.	.	.	.	.	4r	.	.	8.bnt>\L	.
8GG/J	X 4	.	.	.	.	.	.	.	.	.	.
.	X 3	.	.	.	.	.	.	.	.	16b\Jk	.
=12	=12	=12	=12	=12	=12	=12	=12	=12	=12	=12	=12
!LO:TX:a:t=P:problem=mixed beam	!	!	!	!	!	!	!	!	!	!	!
8C/L	.	1ryy	1ryy	1ryy	1ryy	1ryy	4cc\	an-	1ryy	8cc\	.
8c\	.	.	.	.	.	.	.	.	.	8r	.
8Bn\	X 6	.	.	.	.	.	4gg\	-te	.	4r	.
8G\J	.	.	.	.	.	.	.	.	.	.	.
!LO:TX:a:t=P:problem=mixed beam	!	!	!	!	!	!	!	!	!	!	!
8GG/L	.	.	.	.	.	.	4bn\	di-	.	2rg	.
8G\	.	.	.	.	.	.	.	.	.	.	.
8E-\	X 6	.	.	.	.	.	(>8cc\L	-em	.	.	.
8C\J	.	.	.	.	.	.	16dd\L	.	.	.	.
.	.	.	.	.	.	.	16ee-\JJ)	.	.	.	.
=13	=13	=13	=13	=13	=13	=13	=13	=13	=13	=13	=13
!LO:TX:a:t=P:problem=mixed beam	!	!	!	!	!	!	!	!	!	!	!
8D/L	.	1ryy	1ryy	1ryy	1ryy	1ryy	(>16ff\LL	ra-	1ryy	2rg	.
.	.	.	.	.	.	.	16ee-\JJ)	.	.	.	.
8C/	.	.	.	.	.	.	(>16dd\LL	-ti-	.	.	.
.	.	.	.	.	.	.	16ee-\JJ)	.	.	.	.
8G\	.	.	.	.	.	.	4bn\	-o-	.	.	.
8GG/J	X 4	.	.	.	.	.	.	.	.	.	.
.	X 3	.	.	.	.	.	.	.	.	.	.
!	!	!	!	!	!	!	!	!	!	!	!LO:DY:b
!	!	!	!	!	!	!	!	!	!	!	!LO:HP:i:b:t=forte
4C/	.	.	.	.	.	.	4cc\	-nis	.	4g/	f
4r	.	.	.	.	.	.	4r	.	.	8g/L	.
!	!	!	!	!	!	!	!	!	!	!LO:TX:a:t=P:problem=niewyraźny zapis	!
.	.	.	.	.	.	.	.	.	.	16a/L	.
.	.	.	.	.	.	.	.	.	.	16b-/JJ	.
=14	=14	=14	=14	=14	=14	=14	=14	=14	=14	=14	=14
!	!	!	!	!	!	!	!LO:TX:a:t=9.	!	!	!	!
!	!	!	!	!	!	!	!LO:N:vis=00	!	!	!	!
8F\L	X n	1ryy	1ryy	1ryy	1ryy	1ryy	00r	.	1ryy	4a/	.
8G\	.	.	.	.	.	.	.	.	.	.	.
8A\	.	.	.	.	.	.	.	.	.	4r	.
8G\J	.	.	.	.	.	.	.	.	.	.	.
4F\	X n	.	.	.	.	.	.	.	.	4a/	.
4r	.	.	.	.	.	.	.	.	.	8a/L	.
.	.	.	.	.	.	.	.	.	.	16bn/L	.
.	.	.	.	.	.	.	.	.	.	16cc/JJ	.
!	!	!	!	!	!	!	!	!	!	!LO:LB:g=original	!
=15	=15	=15	=15	=15	=15	=15	=15	=15	=15	=15	=15
8G\L	.	1ryy	1ryy	1ryy	1ryy	1ryy	.	.	1ryy	4bn/	.
8A\	.	.	.	.	.	.	.	.	.	.	.
8Bn\	.	.	.	.	.	.	.	.	.	4r	.
8G\J	.	.	.	.	.	.	.	.	.	.	.
!LO:TX:a:t=P:problem=mixed beam	!	!	!	!	!	!	!	!	!	!	!
8C/L	.	.	.	.	.	.	.	.	.	4cc\	.
8c\	.	.	.	.	.	.	.	.	.	.	.
8Bn\	X 6	.	.	.	.	.	.	.	.	4gg\	.
8G\J	.	.	.	.	.	.	.	.	.	.	.
=16	=16	=16	=16	=16	=16	=16	=16	=16	=16	=16	=16
!LO:TX:a:t=P:problem=mixed beam	!	!	!	!	!	!	!	!	!	!	!
8GG/L	.	1ryy	1ryy	1ryy	1ryy	1ryy	.	.	1ryy	8bn/L	.
8G\	.	.	.	.	.	.	.	.	.	8g/J	.
8E-\	X 6	.	.	.	.	.	.	.	.	4cc\	.
8C\J	.	.	.	.	.	.	.	.	.	.	.
!LO:LB:g=original	!	!	!	!	!	!	!	!	!	!	!
!LO:TX:a:t=P:problem=mixed beam	!	!	!	!	!	!	!	!	!	!	!
8F\L	.	.	.	.	.	.	.	.	.	8dd\L	.
8D\	.	.	.	.	.	.	.	.	.	16ee-\L	.
.	.	.	.	.	.	.	.	.	.	16ff\JJ	.
8G\	.	.	.	.	.	.	.	.	.	8.bnt</L	.
8GG/J	X 4	.	.	.	.	.	.	.	.	.	.
.	X 3	.	.	.	.	.	.	.	.	16b/Jk	.
=17	=17	=17	=17	=17	=17	=17	=17	=17	=17	=17	=17
!LO:TX:a:t=P:problem=mixed beam	!	!	!	!	!	!	!	!	!	!	!
8C\L	.	1ryy	1ryy	1ryy	1ryy	1ryy	.	.	1ryy	4cc\	.
8F\	.	.	.	.	.	.	.	.	.	.	.
8G\	.	.	.	.	.	.	.	.	.	4r	.
8GG/J	X 4	.	.	.	.	.	.	.	.	.	.
.	X 3	.	.	.	.	.	.	.	.	.	.
!	!	!	!	!	!	!	!	!	!	!	!LO:DY:b:rj
!	!	!	!	!	!	!	!	!	!	!	!LO:HP:i:b:t=piano
4C/	.	.	.	.	.	.	.	.	.	4g/	p
4r	.	.	.	.	.	.	.	.	.	8g/L	.
.	.	.	.	.	.	.	.	.	.	16a/L	.
.	.	.	.	.	.	.	.	.	.	16b-/JJ	.
=18	=18	=18	=18	=18	=18	=18	=18	=18	=18	=18	=18
!	!	!	!	!	!	!	!LO:N:vis=00	!	!	!	!
8F\L	X n	1ryy	1ryy	1ryy	1ryy	1ryy	00r	.	1ryy	4a/	.
8G\	.	.	.	.	.	.	.	.	.	.	.
8A\	.	.	.	.	.	.	.	.	.	4r	.
8F\J	.	.	.	.	.	.	.	.	.	.	.
4F\	X n	.	.	.	.	.	.	.	.	4a/	.
4r	.	.	.	.	.	.	.	.	.	8a/L	.
.	.	.	.	.	.	.	.	.	.	16bn/L	.
.	.	.	.	.	.	.	.	.	.	16cc/JJ	.
=19	=19	=19	=19	=19	=19	=19	=19	=19	=19	=19	=19
8G\L	.	1ryy	1ryy	1ryy	1ryy	1ryy	.	.	1ryy	4bn/	.
8A\	.	.	.	.	.	.	.	.	.	.	.
8Bn\	.	.	.	.	.	.	.	.	.	4r	.
8G\J	.	.	.	.	.	.	.	.	.	.	.
!LO:TX:a:t=P:problem=mixed beam	!	!	!	!	!	!	!	!	!	!	!
8C/L	.	.	.	.	.	.	.	.	.	4cc\	.
8c\	.	.	.	.	.	.	.	.	.	.	.
8Bn\	X 6	.	.	.	.	.	.	.	.	4gg\	.
8G\J	.	.	.	.	.	.	.	.	.	.	.
=20	=20	=20	=20	=20	=20	=20	=20	=20	=20	=20	=20
!LO:TX:a:t=P:problem=mixed beam	!	!	!	!	!	!	!	!	!	!	!
8GG/L	.	1ryy	1ryy	1ryy	1ryy	1ryy	.	.	1ryy	8bn/L	.
8G\	.	.	.	.	.	.	.	.	.	8g/J	.
8E-\	X 6	.	.	.	.	.	.	.	.	4cc\	.
8C\J	.	.	.	.	.	.	.	.	.	.	.
!LO:TX:a:t=P:problem=mixed beam	!	!	!	!	!	!	!	!	!	!	!
8F\L	.	.	.	.	.	.	.	.	.	8dd\L	.
8D\	.	.	.	.	.	.	.	.	.	16ee-\L	.
.	.	.	.	.	.	.	.	.	.	16ff\JJ	.
8G\	.	.	.	.	.	.	.	.	.	8.bn/L	.
8GG/J	X 4	.	.	.	.	.	.	.	.	.	.
.	X 3	.	.	.	.	.	.	.	.	16b/Jk	.
=21	=21	=21	=21	=21	=21	=21	=21	=21	=21	=21	=21
!LO:TX:a:t=P:problem=mixed beam	!	!	!	!	!	!	!	!	!	!	!
8C\L	.	1ryy	1ryy	1ryy	1ryy	1ryy	.	.	1ryy	4cc\	.
8F\	.	.	.	.	.	.	.	.	.	.	.
8G\	.	.	.	.	.	.	.	.	.	4r	.
8GG/J	X 4	.	.	.	.	.	.	.	.	.	.
.	X 3	.	.	.	.	.	.	.	.	.	.
!	!	!	!	!	!	!	!	!	!	!	!LO:DY:b:rj
!LO:TX:a:t=P:problem=mixed beam	!	!	!	!	!	!	!	!	!	!	!LO:HP:i:b:t=forte
8C/L	.	.	.	.	.	.	.	.	.	4cc\	f
8c\	.	.	.	.	.	.	.	.	.	.	.
8Bn\	X 6	.	.	.	.	.	.	.	.	4gg\	.
8G\J	.	.	.	.	.	.	.	.	.	.	.
!	!	!	!	!	!	!	!	!	!	!LO:LB:g=original	!
=22	=22	=22	=22	=22	=22	=22	=22	=22	=22	=22	=22
!LO:TX:a:t=P:problem=mixed beam	!	!	!	!	!LO:N:vis=0	!	!	!	!	!	!
8GG/L	.	1ryy	1ryy	1ryy	1ryy	1ryy	0r	.	1ryy	8bn/L	.
8G\	.	.	.	.	.	.	.	.	.	8g/J	.
8E-\	X 6	.	.	.	.	.	.	.	.	4cc\	.
8C\J	.	.	.	.	.	.	.	.	.	.	.
!LO:TX:a:t=P:problem=mixed beam	!	!	!	!	!	!	!	!	!	!	!
8F\L	.	.	.	.	.	.	.	.	.	8dd\L	.
8D\	.	.	.	.	.	.	.	.	.	16ee-\L	.
.	.	.	.	.	.	.	.	.	.	16ff\JJ	.
8G\	.	.	.	.	.	.	.	.	.	8.bnt</L	.
8GG/J	.	.	.	.	.	.	.	.	.	.	.
.	.	.	.	.	.	.	.	.	.	16b/Jk	.
=23	=23	=23	=23	=23	=23	=23	=23	=23	=23	=23	=23
4C/	.	1ryy	1ryy	1ryy	1ryy	1ryy	.	.	1ryy	4cc\	.
4ryy	.	.	.	.	.	.	.	.	.	4ryy	.
2ryy	.	.	.	.	.	.	.	.	.	2ryy	.
==	==	==	==	==	==	==	==	==	==	==	==
*-	*-	*-	*-	*-	*-	*-	*-	*-	*-	*-	*-
!!!system-decoration: s1,s2,s3,s4,s5,s6,s7,s8,s9
!!!RDF**kern: > = above
!!!RDF**kern: < = below
!!!EED: Mateusz Mrugas
!!!EEV: 2020-12-02
!!!ENC: Andrzej Gręziak
!!!END: 2020-04-29
